T: Pibddawns Rhif Wyth
M: 4/4
L: 1/8
K: Fmaj
F2 c2 B>AG>F | B>AB>c B2 A>G | F2 c2 B>AG>F | c>=Bc>d c>BA>G |F2 c>F B>AG>F | B2 (3cde f2 e>d | C>AF>A B>GE>G | F2 A2 F2 :|f>FA>c f>ed>c | B>df>d B>df>d | g>G=B>d g>fe>d | c>eg>e c>eg>e |f2 (3ABc f>ed>c | d>DF>B d2 e>d | c>AF>A B>G (3EFG | F2 A2 F2 :|
